X: 10332
T: MARY GRAY.     a Reel.
R: reel
B: "Edinburgh Repository of Music" v.1 p.33 #2
F: http://digital.nls.uk/special-collections-of-printed-music/pageturner.cfm?id=87776133
Z: 2015 John Chambers <jc:trillian.mit.edu>
M: C
L: 1/8
K: G
B/c/ |\
d>GB>G c=FA2 | dGBd gdB2 |\
d>GB>G c>=FA>B | d>cB>A G2G :|\
B |\
D<D =F>A cFA2 | G<G B>d gdB2 |
D<D =FA cF AB/c/ | d>cBA G2GB |\
D<D =F>A c>FA2 | G<G B>d g>d B2 |\
.D.D.D.E =FGAc | d>Bc>A G2G |]

%%sep 2 1 500
%%sep 1 1 500

